logo.svg

<?xml version="1.0" encoding="UTF-8" standalone="no"?>
<!-- Created with Inkscape (http://www.inkscape.org/) -->

<svg
   width="16.0px"
   height="16.0px"
   viewBox="0 0 16.0 16.0"
   version="1.1"
   id="SVGRoot"
   sodipodi:docname="drawing.svg"
   inkscape:version="1.2.2 (b0a8486541, 2022-12-01)"
   inkscape:export-filename="drawing.png"
   inkscape:export-xdpi="6144"
   inkscape:export-ydpi="6144"
   xmlns:inkscape="http://www.inkscape.org/namespaces/inkscape"
   xmlns:sodipodi="http://sodipodi.sourceforge.net/DTD/sodipodi-0.dtd"
   xmlns="http://www.w3.org/2000/svg"
   xmlns:svg="http://www.w3.org/2000/svg">
  <sodipodi:namedview
     id="namedview541"
     pagecolor="#ffffff"
     bordercolor="#000000"
     borderopacity="0.25"
     inkscape:showpageshadow="2"
     inkscape:pageopacity="0.0"
     inkscape:pagecheckerboard="0"
     inkscape:deskcolor="#d1d1d1"
     inkscape:document-units="px"
     showgrid="true"
     inkscape:zoom="58.553984"
     inkscape:cx="12.808693"
     inkscape:cy="9.7004501"
     inkscape:window-width="2560"
     inkscape:window-height="1367"
     inkscape:window-x="0"
     inkscape:window-y="0"
     inkscape:window-maximized="1"
     inkscape:current-layer="layer1">
    <inkscape:grid
       type="xygrid"
       id="grid547" />
  </sodipodi:namedview>
  <defs
     id="defs536" />
  <g
     inkscape:label="Layer 1"
     inkscape:groupmode="layer"
     id="layer1">
    <path
       d="M 4.7999588,16 C 2.1489192,16 0,13.851081 0,11.200041 V 4.7999588 C 0,2.1489192 2.1489192,0 4.7999588,0 H 11.200041 C 13.851081,0 16,2.1489192 16,4.7999588 V 11.200041 C 16,13.851081 13.851081,16 11.200041,16 Z"
       fill="#8dbdff"
       fill-rule="nonzero"
       stroke="none"
       stroke-width="0.205619"
       stroke-linecap="butt"
       stroke-linejoin="miter"
       stroke-miterlimit="10"
       stroke-dasharray="none"
       stroke-dashoffset="0"
       font-family="none"
       font-weight="none"
       font-size="none"
       text-anchor="none"
       style="display:inline;mix-blend-mode:normal"
       data-fill-palette-color="accent"
       id="path813"
       inkscape:label="path813" />
    <path
       d="M 13.465998,5.927081 C 13.409908,5.814319 13.295077,5.742103 13.168404,5.742103 H 9.1591029 L 12.059715,1.526966 C 12.163748,1.375727 12.125416,1.169587 11.974625,1.06526 11.901375,1.01554 11.815248,0.99941 11.733562,1.01273 11.713432,1.00413 11.692132,1 11.669042,1 H 9.726025 c -0.0041,0 -0.0078,0.0013 -0.01154,0.0021 -0.0108,7.29e-4 -0.02042,0.0036 -0.03049,0.0062 -0.0108,0.0028 -0.02146,0.0056 -0.03152,0.01051 -0.0089,0.0041 -0.01613,0.0098 -0.02427,0.01613 -0.0092,0.007 -0.01776,0.01332 -0.02516,0.02161 -0.0064,0.007 -0.01125,0.01539 -0.01687,0.02457 -0.0055,0.0098 -0.01154,0.01953 -0.01509,0.03019 -0.0013,0.0034 -0.0041,0.0062 -0.0052,0.0098 L 8.2509082,5.856259 c -0.0038,0.01539 -0.0031,0.03019 -0.0031,0.04484 -0.06053,0.09944 -0.06733,0.223602 -0.01258,0.32719 0.05742,0.108619 0.1701803,0.177283 0.2935986,0.177283 H 10.584458 L 9.5012226,10.307579 9.3698133,10.478498 7.628498,10.477769 h -2.96e-4 c -0.1078793,0 -0.2095435,0.05253 -0.2714006,0.14162 -0.062,0.08835 -0.0768,0.201701 -0.03966,0.303365 l 1.1598902,3.177632 c 0.03818,0.105066 0.1271182,0.183498 0.2364774,0.209543 0.02427,0.0058 0.04987,0.0086 0.07473,0.0086 0.08465,0 0.1673683,-0.033 0.2296694,-0.09249 L 12.33317,11.049128 c 0.09811,-0.09397 0.128893,-0.238252 0.07843,-0.363593 -0.05091,-0.126229 -0.1724,-0.207472 -0.307952,-0.207472 v 0 l -1.898029,7.29e-4 3.225583,-4.202548 c 0.0771,-0.100185 0.09042,-0.235441 0.03478,-0.349091 z M 9.8518102,1.331481 H 11.388761 L 8.8117862,5.077957 Z m 1.4265558,9.810064 -2.3524845,2.254221 -0.8235256,-2.254073 1.7635134,7.29e-4 z M 10.040637,9.604303 10.928682,6.405805 h 1.567435 z M 6.5454279,9.792093 5.227491,9.792822 7.3618494,7.011783 c 0.03848,-0.0512 0.04513,-0.118386 0.01717,-0.174471 -0.02767,-0.05742 -0.08553,-0.09249 -0.1485743,-0.09249 H 4.5600877 l 1.917416,-2.787253 c 0.05224,-0.07562 0.033,-0.178763 -0.04247,-0.231297 -0.0031,-0.0021 -0.0067,-0.0021 -0.01006,-0.0041 -0.01406,-0.07636 -0.07843,-0.135848 -0.1593773,-0.135848 H 5.0151356 c -0.0046,0 -0.008,0.0021 -0.01184,0.0021 -0.01021,5.93e-4 -0.01968,0.0034 -0.02915,0.0062 -0.01154,0.0028 -0.02279,0.0056 -0.03256,0.01051 -0.0087,0.0043 -0.01613,0.01051 -0.02353,0.01613 -0.0095,0.0069 -0.0185,0.01332 -0.0259,0.02175 -0.0064,0.0077 -0.01154,0.01613 -0.01643,0.02456 -0.0064,0.0098 -0.01199,0.01968 -0.01583,0.03078 -10e-4,0.0028 -0.0038,0.0056 -0.0049,0.0092 L 4.0092997,6.754823 c -0.02027,0.07503 0.0148,0.148575 0.07888,0.185719 0.0028,0.01613 0.0025,0.03226 0.01021,0.04691 0.02841,0.05461 0.08509,0.08894 0.1465032,0.08894 H 5.5197619 L 4.7654921,9.79291 3.665831,9.792181 c -0.05431,0 -0.1047712,0.0259 -0.1358482,0.07014 -0.03078,0.04484 -0.038624,0.101665 -0.01998,0.151979 l 0.7465745,2.04512 c 0.01924,0.05253 0.06378,0.0919 0.1179422,0.103735 0.01228,0.0034 0.02486,0.0049 0.03788,0.0049 0.04203,0 0.08331,-0.01613 0.1142422,-0.04632 l 2.1333234,-2.044403 c 0.04869,-0.04691 0.06452,-0.118386 0.03892,-0.180835 C 6.6740251,9.833457 6.613055,9.792169 6.5454269,9.792169 Z M 5.1409209,3.917625 H 6.102219 L 4.4906846,6.260042 Z m 0.7230457,3.15869 H 6.8939275 L 5.2797291,9.179592 Z m -1.383049,4.630821 -0.5783171,-1.583562 1.2026573,7.29e-4 H 6.1324071 Z M 13.465998,5.927081 C 13.409908,5.814319 13.295077,5.742103 13.168404,5.742103 H 9.1591029 L 12.059715,1.526966 C 12.163748,1.375727 12.125416,1.169587 11.974625,1.06526 11.901375,1.01554 11.815248,0.99941 11.733562,1.01273 11.713432,1.00413 11.692132,1 11.669042,1 H 9.726025 c -0.0041,0 -0.0078,0.0013 -0.01154,0.0021 -0.0108,7.29e-4 -0.02042,0.0036 -0.03049,0.0062 -0.0108,0.0028 -0.02146,0.0056 -0.03152,0.01051 -0.0089,0.0041 -0.01613,0.0098 -0.02427,0.01613 -0.0092,0.007 -0.01776,0.01332 -0.02516,0.02161 -0.0064,0.007 -0.01125,0.01539 -0.01687,0.02457 -0.0055,0.0098 -0.01154,0.01953 -0.01509,0.03019 -0.0013,0.0034 -0.0041,0.0062 -0.0052,0.0098 L 8.2509082,5.856259 c -0.0038,0.01539 -0.0031,0.03019 -0.0031,0.04484 -0.06053,0.09944 -0.06733,0.223602 -0.01258,0.32719 0.05742,0.108619 0.1701803,0.177283 0.2935986,0.177283 H 10.584458 L 9.5012226,10.307579 9.3698133,10.478498 7.628498,10.477769 h -2.96e-4 c -0.1078793,0 -0.2095435,0.05253 -0.2714006,0.14162 -0.062,0.08835 -0.0768,0.201701 -0.03966,0.303365 l 1.1598902,3.177632 c 0.03818,0.105066 0.1271182,0.183498 0.2364774,0.209543 0.02427,0.0058 0.04987,0.0086 0.07473,0.0086 0.08465,0 0.1673683,-0.033 0.2296694,-0.09249 L 12.33317,11.049128 c 0.09811,-0.09397 0.128893,-0.238252 0.07843,-0.363593 -0.05091,-0.126229 -0.1724,-0.207472 -0.307952,-0.207472 v 0 l -1.898029,7.29e-4 3.225583,-4.202548 c 0.0771,-0.100185 0.09042,-0.235441 0.03478,-0.349091 z M 9.8518102,1.331481 H 11.388761 L 8.8117862,5.077957 Z m 1.4265558,9.810064 -2.3524845,2.254221 -0.8235256,-2.254073 1.7635134,7.29e-4 z M 10.040637,9.604303 10.928682,6.405805 h 1.567435 z M 6.5454279,9.792093 5.227491,9.792822 7.3618494,7.011783 c 0.03848,-0.0512 0.04513,-0.118386 0.01717,-0.174471 -0.02767,-0.05742 -0.08553,-0.09249 -0.1485743,-0.09249 H 4.5600877 l 1.917416,-2.787253 c 0.05224,-0.07562 0.033,-0.178763 -0.04247,-0.231297 -0.0031,-0.0021 -0.0067,-0.0021 -0.01006,-0.0041 -0.01406,-0.07636 -0.07843,-0.135848 -0.1593773,-0.135848 H 5.0151356 c -0.0046,0 -0.008,0.0021 -0.01184,0.0021 -0.01021,5.93e-4 -0.01968,0.0034 -0.02915,0.0062 -0.01154,0.0028 -0.02279,0.0056 -0.03256,0.01051 -0.0087,0.0043 -0.01613,0.01051 -0.02353,0.01613 -0.0095,0.0069 -0.0185,0.01332 -0.0259,0.02175 -0.0064,0.0077 -0.01154,0.01613 -0.01643,0.02456 -0.0064,0.0098 -0.01199,0.01968 -0.01583,0.03078 -10e-4,0.0028 -0.0038,0.0056 -0.0049,0.0092 L 4.0092997,6.754823 c -0.02027,0.07503 0.0148,0.148575 0.07888,0.185719 0.0028,0.01613 0.0025,0.03226 0.01021,0.04691 0.02841,0.05461 0.08509,0.08894 0.1465032,0.08894 H 5.5197619 L 4.7654921,9.79291 3.665831,9.792181 c -0.05431,0 -0.1047712,0.0259 -0.1358482,0.07014 -0.03078,0.04484 -0.038624,0.101665 -0.01998,0.151979 l 0.7465745,2.04512 c 0.01924,0.05253 0.06378,0.0919 0.1179422,0.103735 0.01228,0.0034 0.02486,0.0049 0.03788,0.0049 0.04203,0 0.08331,-0.01613 0.1142422,-0.04632 l 2.1333234,-2.044403 c 0.04869,-0.04691 0.06452,-0.118386 0.03892,-0.180835 C 6.6740251,9.833457 6.613055,9.792169 6.5454269,9.792169 Z M 5.1409209,3.917625 H 6.102219 L 4.4906846,6.260042 Z m 0.7230457,3.15869 H 6.8939275 L 5.2797291,9.179592 Z m -1.383049,4.630821 -0.5783171,-1.583562 1.2026573,7.29e-4 h 1.0271493 z"
       fill="#0718c4"
       data-fill-palette-color="quaternary"
       id="path817"
       style="display:inline;stroke-width:0.147983"
       inkscape:label="path817" />
  </g>
</svg>

<svg xmlns="http://www.w3.org/2000/svg" viewBox="0 0 16 16">
  <path fill="#8dbdff" d="M4.8 16A4.8 4.8 0 0 1 0 11.2V4.8A4.8 4.8 0 0 1 4.8 0h6.4A4.8 4.8 0 0 1 16 4.8v6.4a4.8 4.8 0 0 1-4.8 4.8Z" data-fill-palette-color="accent" font-family="none" font-size="none" font-weight="none" style="mix-blend-mode:normal" text-anchor="none"/>
  <path fill="#0718c4" d="M13.47 5.93a.33.33 0 0 0-.3-.19H9.16l2.9-4.21a.33.33 0 0 0-.09-.46.33.33 0 0 0-.24-.06.16.16 0 0 0-.06-.01H9.68l-.03.02-.02.01-.03.03-.01.02-.02.03v.01L8.25 5.86v.04a.33.33 0 0 0 .28.5h2.05L9.5 10.3l-.13.18H7.63a.33.33 0 0 0-.31.44l1.16 3.18a.33.33 0 0 0 .54.13l3.31-3.18a.33.33 0 0 0-.23-.57h-1.9l3.23-4.2c.08-.1.1-.24.04-.35zm-3.62-4.6h1.54L8.8 5.08Zm1.43 9.81L8.93 13.4l-.83-2.26h1.77zM10.04 9.6l.89-3.2h1.57zm-3.5.2h-1.3L7.36 7a.17.17 0 0 0-.13-.27H4.56l1.92-2.78a.17.17 0 0 0-.04-.23h-.02a.16.16 0 0 0-.15-.14h-1.3l-.03.02-.02.01-.03.02-.01.03-.02.03L4 6.76c-.02.08.01.15.08.2V7c.04.05.1.09.15.09h1.28L4.76 9.8h-1.1a.17.17 0 0 0-.16.22l.75 2.05c.02.05.06.1.11.1h.04c.04 0 .09 0 .12-.04l2.13-2.04a.16.16 0 0 0 .04-.18.16.16 0 0 0-.15-.1Zm-1.4-5.88h.96L4.5 6.26Zm.72 3.16H6.9l-1.61 2.1ZM4.48 11.7l-.58-1.59h2.23Zm8.99-5.78a.33.33 0 0 0-.3-.19H9.16l2.9-4.21a.33.33 0 0 0-.09-.46.33.33 0 0 0-.24-.06.16.16 0 0 0-.06-.01H9.68l-.03.02-.02.01-.03.03-.01.02-.02.03v.01L8.25 5.86v.04a.33.33 0 0 0 .28.5h2.05L9.5 10.3l-.13.18H7.63a.33.33 0 0 0-.31.44l1.16 3.18a.33.33 0 0 0 .54.13l3.31-3.18a.33.33 0 0 0-.23-.57h-1.9l3.23-4.2c.08-.1.1-.24.04-.35zm-3.62-4.6h1.54L8.8 5.08Zm1.43 9.81L8.93 13.4l-.83-2.26h1.77zM10.04 9.6l.89-3.2h1.57zm-3.5.2h-1.3L7.36 7a.17.17 0 0 0-.13-.27H4.56l1.92-2.78a.17.17 0 0 0-.04-.23h-.02a.16.16 0 0 0-.15-.14h-1.3l-.03.02-.02.01-.03.02-.01.03-.02.03L4 6.76c-.02.08.01.15.08.2V7c.04.05.1.09.15.09h1.28L4.76 9.8h-1.1a.17.17 0 0 0-.16.22l.75 2.05c.02.05.06.1.11.1h.04c.04 0 .09 0 .12-.04l2.13-2.04a.16.16 0 0 0 .04-.18.16.16 0 0 0-.15-.1Zm-1.4-5.88h.96L4.5 6.26Zm.72 3.16H6.9l-1.61 2.1ZM4.48 11.7l-.58-1.59h2.23z" data-fill-palette-color="quaternary"/>
</svg>
